X:47
T: Xin bian de Shange,yong che la
N: C0062
O: China,Qinghai, Tongren
S: I, 243]
N: neues Volkslied
N: Die einzelnen Strophen werden variiert. Hier ist die 3. Strophe ange-
N: geben.
R: Shange, Huar, San san er ling. Xin minge]
M: 2/4
L: 1/16
K: A
B2B2E2EF | B8 |
e4f2a2 | f2e2e2c2 | B8 |
B2BAF2FA | B8 |
e4f2ab | f4f2e2 | d2B2e2f2 |
z2BBB2B2B2A2 | F4A2B2 |
B3eF2A2 | F2E2E4- | E8 |
e4f2ab | f4f2e2 | d2B2e2f2 |
z2BBB2B2B2A2 | F4A2B2 |
B2z2f4- | f8 | c'4
z2e2 | f3ee4- | e8 | e4z4

@@@ Tune index: 6048
